!!!OTL: 409. Haeschen in der Grube. / Andere Melodie.
!!!ARE: Europa, Mitteleuropa, Deutschland, Thueringen
!!!SCT: K2409A
!!!YEM: Copyright 1995, estate of Helmut Schaffrath.
**kern	**text
*clefG2	*
*M2/4	*
*k[f#c#]	*
*D:	*
=1	=1
{8a	Häs-
8a	-chen
8f#	in
8b	der
=2	=2
4a	Gru-
4f#}	-be,
=3	=3
{4a	ſaß
8f#	da
8b	und
=4	=4
4a	ſchlief.
4r}	.
=5	=5
{8a	Ar-
8a	-mes
8f#	Häs-
8d	-chen.
=6	=6
8dd	biſt
8b	du
4a}	krank,
=7	=7
{8a	daß
8a	du
8f#	nicht
8d	mehr
=8	=8
8dd	hü-
8b	-pfen
4a	kannſt?
=9	=9
4r}	.
{8a	Häs-
8a	-chen
=10	=10
4dd	hüpf,
8a	Häs-
8a	-chen
=11	=11
4dd	hüpf!
4r}	.
==	==
!!!AGN: Kinder - Lied, Tanz -, Lauf - Spiel
!!!ONB: ESAC (Essen Associative Code) Database: KINDER
!!!AMT: simple duple
!!!AIN: vox
!!!EED: Helmut Schaffrath
!!!EEV: 1.0
!!Jn Thueringen gehoert.
!!!GTL: Zweites Buch. Kinderspiel: 3. Lauf-, Sprung- und Haschenspiele.
!!!URL-scan: https://archive.org/details/DeutschesKinderliedUndKinderspiel/page/577/mode/1up
!!!ENC: Anna Maria Matuszewska
!!!EEV: 2024/05/09
*-	*-
